X:121
T:Bred’s of Marr. RH.121
T:Braes Of Marr(2), aka. RH121
R:Reel
S:Rev.R.Harrison’s MS,c1815,Cumbria
N:No, not The Braes of Mar.
O:England
A:Temple Sowerby,Cumbria
Z:vmp.Simon Wilson. Review PJH, 2008.
M:C|
L:1/8
Q:1/2=80
K:D
|:d2df d>dd2|BEBA BEEc|d2df d>dd2|BdAF E2D2:|!
DFAc dAFD|GBFA BEE2|DFAc dAFD|GBFA E2D2|
DFAc dAFD|GBFA BEE2|A2AB ABde|fdgf e2d2|]

